X: 40
T: Slängpolska efter Juringius
R: waltz
M: 3/4
L: 1/8
K: Amin
"Am" e>e Ae Ae|"Dm"f>e de fg|"G"d>d Gd Gd|"C"e>d cd ef|"Am"e2 dc B>A|"G"G/A/B/G/ "Am"A4:|
|:"G"B>B DB DB|"F"c>B AB cd|"G"B>B DB DB|"Am"c>B AB "D"cd|
"G"d>d Gd Gd|"C"e>d cd ef|"Am"e2 dc B>A|"G"G/A/B/G/ "Am"A4:| 

